X: 128008
T: The OLD GREY CAT
%R: reel
B: James Kerr "Merry Melodies" v.1 p.28 s.0 #8
Z: 2016 John Chambers <jc:trillian.mit.edu>
M: C
L: 1/8
K: Em
[|\
e2e2 E3F | (GF)GA (BA)B^c |\
d2d2 D3E | FAdB AFED |\
e2e2 E3F | EFGA BAB^c |\
d^cBA BAGF | E4 e2z2 ||
B2e2 e3d | Bdef gfed |\
A2d2 d3B | ABde fedf |\
e2B2 g2B2 | a2B2 b3a |\
gfed BAB^d | e4 e2z2 |]

%%sep 1 1 500
%%sep 1 1 500

